X: 4333
M: 3/8
L: 1/8
K: G
|:!p!\
cAF | d>ed |[1 cEF | G3 :|[2 AB^c | d3 |:\
fed |[1 B2g | fge | d3 :|\
[2 B2e/>d/ | dcA | G3 |]


